X: 3959
T: Blackhaired Lass, The
R: reel
M: 4/4
K: Amixolydian
AB|cBAB cdec|d2 gd BGGB|cBAB cdec|dfec A3B|
cBAB cdec|d2 gd BGGB|cBAB cdec|dfec A2 AB||
(3Bcd ef g3e|f3d gfed|(3Bcd ef g3e|fdec A2 A2|
(3Bcd ef gfeg|f3d g2 fg|(3agf ge fdec|dfec A2 AB||

